packages/core/src/svgs/tokens/mono/VCORE.svg

<svg width="24" height="24" viewBox="0 0 24 24" fill="none" xmlns="http://www.w3.org/2000/svg">
<path fill-rule="evenodd" clip-rule="evenodd" d="M21.9966 12.0036C21.9966 17.5245 17.521 22.0001 12.0001 22.0001C6.47922 22.0001 2.00366 17.5245 2.00366 12.0036C2.00366 6.48276 6.47922 2.0072 12.0001 2.0072C17.521 2.0072 21.9966 6.48276 21.9966 12.0036ZM13.1418 6.12339H15.494L13.8357 10.2396L19.0573 8.57546V10.8217L15.3528 12.0036L19.0573 13.1797V15.4318L13.9533 13.7972L15.5997 17.8839H13.2478L12.0011 14.7967L10.7544 17.8839H8.40235L10.0959 13.6854L4.94475 15.3318V13.0856L8.33767 11.9977L4.94475 10.9158V8.66954L10.2134 10.3571L8.50819 6.12339H10.8604L12.0011 8.9518L13.1418 6.12339Z" fill="white"/>
<path d="M21.45 15.267C20.836 17.0452 19.7335 18.6143 18.2689 19.7948C17.2692 18.8069 16.346 16.5019 17.4809 15.2083C18.5805 13.9557 20.4799 14.6673 21.45 15.267Z" fill="white"/>
<path d="M7.86699 21.1061C5.72381 20.1301 3.99204 18.4316 2.97461 16.3078C3.76256 16.0138 5.07974 15.9315 6.37929 17.1017C7.83758 18.4189 8.0728 20.1653 7.86699 21.1061Z" fill="white"/>
<path d="M4.97974 4.88842C5.80297 5.25299 6.87906 5.53525 7.68466 5.1295L8.38441 4.7708C9.16649 4.35918 9.34871 4.25923 10.0132 4.41799C10.3249 4.49444 10.5778 4.69437 10.8364 4.89429C11.2599 5.22947 11.7008 5.57641 12.4595 5.40588C13.5531 5.15891 15.4702 3.9064 15.4702 2.62451C13.6881 1.96256 11.7541 1.82341 9.89562 2.22343C8.03713 2.62346 6.33162 3.54602 4.97974 4.88253V4.88842Z" fill="white"/>
</svg>

<svg xmlns="http://www.w3.org/2000/svg" width="24" height="24" fill="none" viewBox="0 0 24 24">
    <path fill="#fff" fill-rule="evenodd" d="M21.997 12.004C21.997 17.524 17.52 22 12 22s-9.996-4.475-9.996-9.996S6.479 2.007 12 2.007s9.997 4.476 9.997 9.997m-8.855-5.88h2.352l-1.658 4.116 5.221-1.665v2.247l-3.704 1.182 3.704 1.176v2.252l-5.104-1.635 1.647 4.087h-2.352L12 14.797l-1.247 3.087H8.402l1.694-4.199-5.151 1.647v-2.246l3.393-1.088-3.393-1.082V8.67l5.268 1.687-1.705-4.234h2.352l1.141 2.829z" clip-rule="evenodd"/>
    <path fill="#fff" d="M21.45 15.267a10 10 0 0 1-3.181 4.528c-1-.988-1.923-3.293-.788-4.587 1.1-1.252 2.999-.54 3.969.059M7.867 21.106a10.04 10.04 0 0 1-4.892-4.798c.788-.294 2.105-.377 3.404.794 1.459 1.317 1.694 3.063 1.488 4.004M4.98 4.888c.823.365 1.9.647 2.705.242l.7-.36c.781-.41.964-.51 1.628-.352.312.076.565.276.823.476.424.335.865.682 1.624.512 1.093-.247 3.01-1.5 3.01-2.781A9.98 9.98 0 0 0 4.98 4.883z"/>
</svg>
